assets/src/images/icons/ic_procces.svg

<svg width="50" height="50" viewBox="0 0 50 50" fill="none" xmlns="http://www.w3.org/2000/svg">
<g clip-path="url(#clip0)">
<path d="M12.4666 3.63363C12.0017 3.23655 11.3155 3.24192 10.8569 3.64613L7.50343 6.64717V6.25389C7.50343 5.79373 7.13046 5.42076 6.67031 5.42076C6.21015 5.42076 5.83718 5.79373 5.83718 6.25389V8.13934L4.44821 9.38244C4.11048 9.69048 4.08403 10.2131 4.38894 10.5538C4.69386 10.8944 5.21621 10.9257 5.5596 10.6239L11.6692 5.155L17.7787 10.6239C18 10.8257 18.3126 10.8933 18.5974 10.8008C18.8823 10.7083 19.0956 10.4701 19.1561 10.1767C19.2166 9.88341 19.1151 9.58015 18.8901 9.38244L12.4666 3.63363Z" fill="#0090A1"/>
<path d="M16.6685 11.6694C16.2083 11.6694 15.8353 12.0424 15.8353 12.5026V18.3347H7.50366V12.5026C7.50366 12.0424 7.13069 11.6694 6.67053 11.6694C6.21037 11.6694 5.8374 12.0424 5.8374 12.5026V18.8638C5.8456 19.4999 6.36776 20.0089 7.00386 20.001H16.3352C16.9717 20.0075 17.4934 19.4977 17.5017 18.8612V12.5026C17.5016 12.0424 17.1285 11.6694 16.6685 11.6694Z" fill="#0090A1"/>
<path d="M11.6695 21.6675C8.44848 21.6675 5.8374 24.2787 5.8374 27.4996C5.8374 30.7205 8.44858 33.3317 11.6695 33.3317C14.8904 33.3317 17.5016 30.7205 17.5016 27.4996C17.4979 24.2801 14.8889 21.6711 11.6695 21.6675ZM7.50366 27.4996C7.5062 25.5207 8.898 23.8157 10.8363 23.4171V27.0272L7.75361 28.8759C7.59222 28.4348 7.50766 27.9693 7.50366 27.4996ZM8.61222 30.3045L11.5403 28.5477L13.9632 30.9705C12.2611 32.106 9.984 31.8226 8.61222 30.3045ZM15.1412 29.7924L12.5026 27.1546V23.4171C13.859 23.692 14.9898 24.6236 15.5191 25.9023C16.0483 27.1811 15.9067 28.6394 15.1412 29.7924Z" fill="#0090A1"/>
<path d="M44.9959 15.0021V12.1501C44.9954 11.4247 44.4074 10.8367 43.682 10.8362H41.3108C40.5853 10.8367 39.9974 11.4247 39.9969 12.1501V15.0021H38.3305V9.77816C38.3297 8.98252 37.6849 8.33773 36.8891 8.33676H34.7729C33.9773 8.33773 33.3325 8.98252 33.3316 9.77816V15.0021H31.6653V5.83728C31.6653 4.91696 30.9193 4.17092 29.999 4.17092H28.3326C27.4123 4.17092 26.6663 4.91696 26.6663 5.83728V15.0021H25.8331C25.373 15.0021 25 14.629 25 14.1689V4.17102C25 3.71086 24.6269 3.33789 24.1669 3.33789C23.7068 3.33789 23.3337 3.71086 23.3337 4.17102V14.1689C23.3337 15.5493 24.4527 16.6684 25.8332 16.6684H44.996C45.4561 16.6684 45.8291 16.2955 45.8291 15.8353C45.8291 15.3751 45.456 15.0021 44.9959 15.0021ZM29.999 15.0021H28.3326V5.83728H29.999V15.0021ZM36.6643 15.0021H34.9979V10.0031H36.6643V15.0021ZM43.3295 15.0021H41.6632V12.5026H43.3296V15.0021H43.3295Z" fill="#0090A1"/>
<path d="M44.9959 31.6654H25.8331C25.373 31.6654 25 31.2924 25 30.8323V29.5109L27.7436 26.7673C28.0727 26.4514 28.5925 26.4514 28.9216 26.7673L29.8981 27.7438C30.8742 28.7195 32.4564 28.7195 33.4323 27.7438L36.9083 24.2678C37.2374 23.9519 37.7572 23.9519 38.0863 24.2678L39.0628 25.2452C40.0399 26.2182 41.6199 26.2182 42.597 25.2452L45.5848 22.2574C45.9006 21.9305 45.8961 21.4108 45.5746 21.0895C45.2532 20.7681 44.7336 20.7636 44.4067 21.0793L41.419 24.0662C41.0936 24.3914 40.5662 24.3914 40.2409 24.0662L39.2644 23.0897C38.2754 22.1458 36.7192 22.1458 35.7302 23.0897L32.2543 26.5657C31.9289 26.8909 31.4015 26.8909 31.0762 26.5657L30.1006 25.5892C29.1114 24.6452 27.5547 24.6452 26.5655 25.5892L25 27.1547V20.8343C25 20.3742 24.6269 20.0012 24.1669 20.0012C23.7068 20.0012 23.3337 20.3743 23.3337 20.8343V30.8323C23.3337 32.2127 24.4527 33.3318 25.8332 33.3318H44.996C45.4561 33.3318 45.8291 32.9587 45.8291 32.4986C45.829 32.0384 45.456 31.6654 44.9959 31.6654Z" fill="#0090A1"/>
<path d="M49.9948 38.7089V4.6251C50.1107 2.20235 48.2507 0.139694 45.829 0.00524902H4.171C1.74924 0.139792 -0.110726 2.20245 0.00516831 4.6251V38.7089C-0.111116 41.1319 1.74885 43.1951 4.171 43.3296H17.5015V44.996H14.1689C12.3284 44.996 10.8363 46.488 10.8363 48.3286V49.1617C10.8363 49.6219 11.2093 49.9948 11.6695 49.9948H38.3306C38.7908 49.9948 39.1638 49.6219 39.1638 49.1617V48.3286C39.1638 46.488 37.6717 44.996 35.8311 44.996H32.4985V43.3296H45.8291C48.2511 43.1952 50.1111 41.1319 49.9948 38.7089ZM35.8311 46.6623C36.7514 46.6623 37.4974 47.4084 37.4974 48.3287H12.5026C12.5026 47.4084 13.2486 46.6623 14.1689 46.6623H35.8311ZM19.1679 44.996V43.3296H30.8322V44.996H19.1679ZM45.829 41.6633H4.171C2.67122 41.5257 1.55885 40.2108 1.67152 38.709V36.6644H48.3286V38.709C48.4412 40.2108 47.3289 41.5257 45.829 41.6633ZM48.3285 4.6251V34.998H1.67152V4.6251C1.55885 3.12335 2.67132 1.80878 4.171 1.67151H45.8291C47.3287 1.80878 48.4412 3.12335 48.3285 4.6251Z" fill="#0090A1"/>
</g>
<defs>
<clipPath id="clip0">
<rect width="50" height="50" fill="white"/>
</clipPath>
</defs>
</svg>

<svg width="50" height="50" viewBox="0 0 50 50" fill="none" xmlns="http://www.w3.org/2000/svg"><g clip-path="url(#clip0)" fill="#0090A1"><path d="M12.467 3.634a1.228 1.228 0 00-1.61.012L7.503 6.647v-.393a.833.833 0 10-1.666 0v1.885L4.448 9.382a.833.833 0 001.112 1.242l6.11-5.469 6.109 5.469a.833.833 0 101.111-1.242l-6.423-5.748zm4.202 8.036a.833.833 0 00-.834.833v5.832H7.504v-5.832a.833.833 0 10-1.667 0v6.36c.009.637.53 1.146 1.167 1.138h9.331a1.155 1.155 0 001.167-1.14v-6.358a.833.833 0 00-.833-.834zm-4.999 9.998a5.832 5.832 0 105.832 5.832 5.839 5.839 0 00-5.832-5.832zM7.503 27.5a4.173 4.173 0 013.332-4.083v3.61l-3.082 1.849a4.107 4.107 0 01-.25-1.376zm1.108 2.805l2.928-1.757 2.423 2.423a4.126 4.126 0 01-5.35-.666zm6.53-.513l-2.64-2.637v-3.738a4.159 4.159 0 012.64 6.375zm29.855-14.79V12.15c0-.725-.589-1.313-1.314-1.314h-2.371c-.726 0-1.314.589-1.314 1.314v2.852H38.33V9.778a1.444 1.444 0 00-1.442-1.441h-2.116a1.443 1.443 0 00-1.441 1.441v5.224h-1.667V5.837c0-.92-.746-1.666-1.666-1.666h-1.666c-.92 0-1.667.746-1.667 1.666v9.165h-.833A.833.833 0 0125 14.17v-10a.833.833 0 00-1.666 0v9.998a2.5 2.5 0 002.5 2.5h19.162a.833.833 0 100-1.667zm-14.997 0h-1.666V5.837h1.666v9.165zm6.665 0h-1.666v-4.999h1.666v5zm6.666 0h-1.667v-2.5h1.667v2.5zm1.666 16.663H25.833a.833.833 0 01-.833-.833v-1.321l2.744-2.744a.85.85 0 011.178 0l.976.977a2.5 2.5 0 003.534 0l3.476-3.476a.85.85 0 011.178 0l.977.977a2.504 2.504 0 003.534 0l2.988-2.988a.833.833 0 00-1.178-1.178l-2.988 2.987a.833.833 0 01-1.178 0l-.977-.976a2.56 2.56 0 00-3.534 0l-3.476 3.476a.833.833 0 01-1.178 0l-.975-.977a2.56 2.56 0 00-3.535 0L25 27.155v-6.32a.833.833 0 00-1.666 0v9.997a2.5 2.5 0 002.5 2.5h19.162a.833.833 0 000-1.667z"/><path d="M49.995 38.709V4.625a4.416 4.416 0 00-4.166-4.62H4.171a4.416 4.416 0 00-4.166 4.62V38.71a4.416 4.416 0 004.166 4.62h13.33v1.667H14.17a3.333 3.333 0 00-3.333 3.333v.833c0 .46.373.833.833.833h26.662c.46 0 .833-.373.833-.833v-.833a3.333 3.333 0 00-3.333-3.333h-3.333V43.33H45.83a4.416 4.416 0 004.166-4.621zM35.83 46.662c.92 0 1.666.746 1.666 1.667H12.503c0-.92.746-1.667 1.666-1.667H35.83zm-16.663-1.666V43.33h11.664v1.666H19.168zm26.661-3.333H4.171a2.76 2.76 0 01-2.5-2.954v-2.045H48.33v2.045a2.76 2.76 0 01-2.5 2.954zm2.5-37.038v30.373H1.672V4.625A2.759 2.759 0 014.17 1.672h41.658a2.759 2.759 0 012.5 2.953z"/></g><defs><clipPath id="clip0"><path fill="#fff" d="M0 0h50v50H0z"/></clipPath></defs></svg>
